X: 43500
T: Yellow Wattle, The
R: jig
M: 6/8
K: Dmixolydian
|:dcA AGE|A/B/AA ABc|dcA ABc|dcA GED|
dcA AGE|A/B/AA AGE|D/E/DD cde|dcA GED:|
|:Ddd c3|ded c3|ded cde|dcA GED|
ded c3|ded d2 c|A/B/AA ABc|dcA GED:|

